X: 35570
T: Ryan's Air
R: jig
M: 6/8
K: Eminor
|:EEE BEA|ABE ABd|e2B deB|BAG ABG|
EEE BEA|ABE ABd|e2B deB|1 BAG EAG:|2 BAG Eed||
|:B2E deB|BAG ABd|e2b abg|edB BAG
B2E deB|BAG ABd|e2b aeg|edB BAG:|

